src/assets/img/image-icon-gps.svg

<?xml version="1.0" encoding="UTF-8" standalone="no"?>
<svg
   viewBox="0 0 24 24"
   version="1.1"
   id="svg636"
   sodipodi:docname="map-check.svg"
   inkscape:version="1.2.1 (9c6d41e410, 2022-07-14)"
   xmlns:inkscape="http://www.inkscape.org/namespaces/inkscape"
   xmlns:sodipodi="http://sodipodi.sourceforge.net/DTD/sodipodi-0.dtd"
   xmlns="http://www.w3.org/2000/svg"
   xmlns:svg="http://www.w3.org/2000/svg">
  <defs
     id="defs640">
    <inkscape:path-effect
       effect="fillet_chamfer"
       id="path-effect4550"
       is_visible="true"
       lpeversion="1"
       nodesatellites_param="F,0,0,1,0,0.2,0,1 @ F,0,0,1,0,0.2,0,1 @ F,0,0,1,0,0.2,0,1 @ F,0,0,1,0,0.2,0,1"
       unit="px"
       method="auto"
       mode="F"
       radius="0.2"
       chamfer_steps="1"
       flexible="false"
       use_knot_distance="true"
       apply_no_radius="true"
       apply_with_radius="true"
       only_selected="false"
       hide_knots="false" />
    <inkscape:path-effect
       effect="fillet_chamfer"
       id="path-effect4544"
       is_visible="true"
       lpeversion="1"
       nodesatellites_param="F,0,0,1,0,0.2,0,1 @ F,0,0,1,0,0.2,0,1 @ F,0,0,1,0,0.2,0,1 @ F,0,0,1,0,0.2,0,1"
       unit="px"
       method="auto"
       mode="F"
       radius="0.2"
       chamfer_steps="1"
       flexible="false"
       use_knot_distance="true"
       apply_no_radius="true"
       apply_with_radius="true"
       only_selected="false"
       hide_knots="false" />
    <inkscape:path-effect
       effect="bspline"
       id="path-effect4538"
       is_visible="true"
       lpeversion="1"
       weight="33.333333"
       steps="2"
       helper_size="0"
       apply_no_weight="true"
       apply_with_weight="true"
       only_selected="false" />
  </defs>
  <sodipodi:namedview
     id="namedview638"
     pagecolor="#ffffff"
     bordercolor="#666666"
     borderopacity="1.0"
     inkscape:showpageshadow="2"
     inkscape:pageopacity="0.0"
     inkscape:pagecheckerboard="0"
     inkscape:deskcolor="#d1d1d1"
     showgrid="false"
     inkscape:zoom="22.627417"
     inkscape:cx="15.843611"
     inkscape:cy="7.4025241"
     inkscape:window-width="1718"
     inkscape:window-height="1368"
     inkscape:window-x="-7"
     inkscape:window-y="0"
     inkscape:window-maximized="0"
     inkscape:current-layer="svg636">
    <inkscape:grid
       type="xygrid"
       id="grid1003"
       empspacing="1" />
  </sodipodi:namedview>
  <path
     d="M18.917 18.756a.773.773 0 0 1-.772-.773.773.773 0 0 1 .772-.773.773.773 0 0 1 .773.773.773.773 0 0 1-.773.772m0-2.935a2.163 2.163 0 0 0-2.163 2.163c0 1.622 2.163 4.017 2.163 4.017s2.163-2.395 2.163-4.017a2.163 2.163 0 0 0-2.163-2.163z"
     style="fill:#23a1d7;stroke-width:.309"
     transform="translate(-.66 -.66) scale(1.05263)"
     id="path634" />
  <g
     id="path1005" />
  <g
     id="path4546">
    <path
       id="path4963"
       style="color:#000000;fill:#23a1d7;stroke-linecap:round"
       d="M 20.791016 2.3085938 C 20.714483 2.3072644 20.635851 2.3196814 20.560547 2.3496094 L 15.755859 4.2597656 L 8.4238281 2.6933594 A 0.5 0.5 0 0 0 8.109375 2.7441406 C 8.0624827 2.74836 8.0152364 2.7575519 7.96875 2.7734375 L 3.0273438 4.4628906 C 2.7135736 4.5701136 2.5 4.867634 2.5 5.1992188 L 2.5 20.800781 C 2.5 21.232958 2.9694734 21.550241 3.3710938 21.390625 L 8.3183594 19.423828 C 8.3312755 19.418695 8.3429367 19.412015 8.3554688 19.40625 L 13.125 20.429688 A 6.25 6.25 0 0 1 13.013672 19.382812 L 8.8183594 18.480469 L 8.8183594 3.8007812 L 15.113281 5.1464844 L 15.113281 14.578125 A 6.25 6.25 0 0 1 19.251953 12.996094 A 6.25 6.25 0 0 1 21.431641 13.388672 L 21.431641 2.9414062 C 21.431641 2.5902633 21.122658 2.3143541 20.791016 2.3085938 z " />
  </g>
</svg>

<svg viewBox="0 0 24 24" xmlns="http://www.w3.org/2000/svg"><path d="M18.917 18.756a.773.773 0 0 1-.772-.773.773.773 0 0 1 .772-.773.773.773 0 0 1 .773.773.773.773 0 0 1-.773.772m0-2.935a2.163 2.163 0 0 0-2.163 2.163c0 1.622 2.163 4.017 2.163 4.017s2.163-2.395 2.163-4.017a2.163 2.163 0 0 0-2.163-2.163z" style="fill:#2980b9;stroke-width:.309" transform="translate(-.66 -.66) scale(1.05263)"/><path style="color:#2980b9;fill:#2980b9;stroke-linecap:round" d="M20.791 2.309a.595.595 0 0 0-.23.04l-4.805 1.91-7.332-1.566a.5.5 0 0 0-.315.051.6.6 0 0 0-.14.03L3.027 4.462a.781.781 0 0 0-.527.736v15.602c0 .432.47.75.871.59l4.947-1.967c.013-.005.025-.012.037-.018l4.77 1.024a6.25 6.25 0 0 1-.111-1.047l-4.196-.903V3.8l6.295 1.346v9.432a6.25 6.25 0 0 1 4.139-1.582 6.25 6.25 0 0 1 2.18.393V2.94c0-.35-.31-.627-.641-.632z"/></svg>
